X:1
T:Title
%%score ( 1 2 ) 3
L:1/8
Q:1/4=105
M:4/4
K:Ab
V:1 treble nm="Grand Piano, Soprano"
V:2 treble 
V:3 bass nm="Choir Pad, Clinging to Jesus"
V:1
 [Ec]>[DB] [CA]2 [CE]2 [DF]2 | [DA]2 [CA]4 [CE]2 | [DG][EA] [EB]2 E2 [Ed]2 | [Ec]2 [EB]6 | %4
w: By~William~Howard~Doane * * * *||||
 [Ec]>[DB] [CA]2 [CE]2 [DF]2 | z2 A4 z2 | [Fd][Fd] [Ec]2- [Ec][EB] [EA]2 | [DG]2 [CA]6 | %8
w: ||||
 [CA][CA][DB][DB] [DE]2 [DB][DB] | z2 A6 | [DG][EA][EB][EB] E2 [Ed][Ed] | z2 B6 | %12
w: ||||
 [Ec][Ed] [Ee]2 [Ee]2 [Ec]2 | [EA]E [DF]2 [EG]2 [Fd]2 | [Fd][Fd] [Ec]2- [Ec][EB] [EA]2 | %15
w: |||
 [DG]2 [CA]6- | [CA]2 z2 z4 |] %17
w: ||
V:2
 x8 | x8 | x8 | x8 | x8 | [DA]2 E2- E-[EB] [Ec]2 | x8 | x8 | x8 | [Ec]2 C2 D2 C2 | x8 | %11
 [Ec]2 E2 E2 E2 | x8 | x8 | x8 | x8 | x8 |] %17
V:3
 [A,,A,]>[A,,A,] [A,,A,]2 [A,,A,]2 [A,,A,]2 | [A,,F,]2 [A,,E,]4 [A,,A,]2 | %2
 [B,,E,][C,A,] [E,G,]2 [E,G,]2 [G,B,]2 | A,2 [E,G,]6 | [E,G,]>[E,G,] [A,,A,]2 [A,,A,]2 [A,,A,]2 | %5
 [A,,F,]2 [C,A,]2- [C,A,][E,G,] A,2 | [D,A,][D,A,] [E,A,]2- [E,A,][E,D] [E,C]2 | [E,B,]2 [A,,A,]6 | %8
 [A,,A,][A,,A,][E,G,][E,G,] [E,G,]2 [E,G,][E,G,] | [E,G,]2 [A,,A,]2 [A,,F,]2 [A,,E,]2 | %10
 [B,,E,][C,A,][E,G,][E,G,] [E,G,]2 [G,B,][G,B,] | A,2 [E,G,]2 [E,G,]2 [E,G,]2 | %12
 A,[A,B,] [A,C]2 [A,C]2 A,2 | [C,A,][C,A,] [D,A,]2 [D,D]2 [D,A,]2 | %14
 [D,A,][D,A,] [E,A,]2- [E,A,][E,D] [E,C]2 | [E,B,]2 [A,,A,]6- | [A,,A,]2 z2 z4 |] %17

